local/share/icons/dracula-icons-main/22/places/folder-music.svg

<?xml version="1.0" encoding="UTF-8"?>
<svg xmlns="http://www.w3.org/2000/svg" xmlns:xlink="http://www.w3.org/1999/xlink" width="22" height="22" viewBox="0 0 22 22">
<path fill-rule="nonzero" fill="rgb(100%, 100%, 100%)" fill-opacity="1" d="M 10 4 C 8.890625 4 8 4.890625 8 6 L 8 12.179688 C 7.679688 12.066406 7.34375 12 7 12 C 5.34375 12 4 13.34375 4 15 C 4 16.65625 5.34375 18 7 18 C 8.65625 18 10 16.65625 10 15 L 10 6 L 16 6 L 16 12.179688 C 15.679688 12.066406 15.34375 12 15 12 C 13.34375 12 12 13.34375 12 15 C 12 16.65625 13.34375 18 15 18 C 16.65625 18 18 16.65625 18 15 L 18 6 C 18 4.890625 17.109375 4 16 4 Z M 7 14 C 7.550781 14 8 14.449219 8 15 C 8 15.550781 7.550781 16 7 16 C 6.449219 16 6 15.550781 6 15 C 6 14.449219 6.449219 14 7 14 Z M 15 14 C 15.550781 14 16 14.449219 16 15 C 16 15.550781 15.550781 16 15 16 C 14.449219 16 14 15.550781 14 15 C 14 14.449219 14.449219 14 15 14 Z M 15 14 "/>
</svg>

<svg width="22" height="22" version="1.1" viewBox="0 0 22 22" xmlns="http://www.w3.org/2000/svg">
 <defs>
  <style id="current-color-scheme" type="text/css">.ColorScheme-Text { color:#FFFFFF; } .ColorScheme-Highlight { color:#5294e2; }</style>
 </defs>
 <path class="ColorScheme-Text" d="m10 4c-1.108 0-2 0.892-2 2v6.1797c-0.31917-0.11396-0.65543-0.17897-1-0.17969-1.6569 0-3 1.3431-3 3s1.3431 3 3 3 3-1.3431 3-3v-9h6v6.1797c-0.31917-0.11396-0.65543-0.17897-1-0.17969-1.6569 0-3 1.3431-3 3s1.3431 3 3 3 3-1.3431 3-3v-9c0-1.108-0.892-2-2-2zm-3 10c0.55228 0 1 0.44772 1 1s-0.44772 1-1 1-1-0.44772-1-1 0.44772-1 1-1zm8 0c0.55228 0 1 0.44772 1 1s-0.44772 1-1 1-1-0.44772-1-1 0.44772-1 1-1z" fill="currentColor"/>
</svg>
